X:1
T: Killiecrankie
T: (Original Sett)
R:Reel
Q: 232
K:C
M:4/4
L:1/8
EF|G3A G2 E2|GE GA G3E|GF ED CD EF|G4 G2 EG|A3c A2 GA|c2 A2 A2 GA|c3d e2 dc|A4 A2 eg|
a2 ge g2 ed|e2 dc d2 e2|c3A GA cE|G4 G2 cB|A2 GA c2 Ac|d2 d2 e3d|c3A GA cE|D4 C2|
|:ef|g3a g2 e2|ge ga g3e|gf ed cd ef|g4 g2 eg|a3c' a2 g2|ag ac' a2 g2|a2 ge d2 eg|a4 a2 eg|
ag ea ge dg|fe dc d2 e2|c3A GA cE|G4 G2 cB|A2 GA c2 Ac|d2 d2 e3d|c3A GA cE|D4 C2:|
